X:6
T:Direkt\orvals nr. II
R:vals
Z:Sm\aaviltlaget, p\aa Skuddhold, Track 3
M:3/4
L:1/8
K:D
e2 f2\
|: "D"d3 c d2 | "D/A"A3 B AG | "D"F2 FG EC | "D/A"D4 A,2 |
   "D"f2 fe/f/ gf | "A"e3 f ed | "A/E"ce ge ce |[1 "D"d3 d ef :|[2 "D"d3 A FG |
|: "D"A2 B2 c2 | "D/F#"d3 c d2 | "G"B3 c dB | "D"B2 A3 G |
   "D"F2 G2 A2 | "Em"B3 A GF | "A"E2 A2 C2 |[1 "D"D3 E FG :|[2 "D"D3 |

